X:1
T:Et qui la dira
T:Et qui la dira
T:A.Agricola
C:A.Agricola
%%score [ 1 2 3 ]
L:1/8
Q:1/4=140
M:4/4
K:F
V:1 treble nm="Alto" snm="A"
V:2 treble-8 nm="Tenor" snm="T"
V:3 bass nm="Bass" snm="B"
V:1
 G4 G2 B2 | B2 B2- B2 AG | A4 B4 | A2 c4 BA | G2 A4 GF | E4 E2 DC | D2 G3 A Bc | A2 G4 ^F2 | G8 | %9
 z8 | G4 G4 | A4 A4 | B4 B4 | A2 c3 B A2- | A2 GF GFED | C3 F E2 C2- | C2 B,A, B,4 | C4 z2 F2 | %18
 F2 A4 G2 | A8 | E4 A4 | A4 G4 | A2 F4 D2 | F3 G E4 | D2 G4 F2 | G8 | A4 B4 | c2 BA G2 F2 | %28
 E4 F2 G2- | G2 F4 E2 | F8 | B4 B2 B2 | B2 B4 AG | A4 B4 | A2 c4 BA | G2 A2 AGFE | D4 G4 | F4 F4 | %38
 G4 B4 | A4 A4 | G4 z4 | c4 c4 | B6 AG | A2 G2 E2 A2- | A2 G4 F2 | G2 B2 A2 d2- | dcBA B2 A2- | %47
 A2 G4 ^F2 | G8 |] %49
V:2
 G4 G4 | G4 G4 | F4 G4 | A8 | z8 | c4 c4 | B4 G4 | c2 B2 A4 | G8- | G8 | z8 | z8 | G4 G4 | A4 A4 | %14
w: et qui|la di-|ra, di-|ra||La do-|leur que|mon _ cueur|a?|_|||J'ai- me|un- e|
 B4 B4 | A4 A4 | G4 G4 | A3 B c2 d2 | A2 c2 B4 | A8 | z8 | z8 | A4 d4 | d4 c4 | d2 cB A2 A2 | G8 | %26
w: bel- le|fil- le;|Je ne|scay _ s'elle _|m'a- * me-|ra|||il me|faul- sist|ung _ _ _ var-|let|
 z8 | A4 B4 | c3 B AG B2- | B2 A2 G2 G2 | F8 | G4 G4 | G4 G4 | F4 G4 | A8 | c4 c4 | B4 G4 | A4 A4 | %38
w: |Qui a|el- * * * le|_ par- ler al-|last.|Et qui|la di-|ra, di-|ra|La do-|leur que|mon cueur|
 G4 G4 | F4 F4 | G4 B4 | A4 A4 | G8 | c4 c4 | B4 A4 | G4 F4 | GABc d2 c2- | c2 B2 A4 | G8 |] %49
w: a? que|mon cueur|a? que|mon cueur|a?|La do|leur que|mon- _|cueur _ _ _ _ _|_ _ _|a?|
V:3
 G,,4 G,,4 | G,,4 E,4 | D,4 z4 | F,4 F,2 F,2 | E,2 F,4 E,D, | C,4 C,4 | G,6 F,E, | F,2 G,2 D,4 | %8
 G,,8 | C,4 C,3 D, | E,4 E,4 | F,8 | G,2 E,3 F, G,2 | F,4 C,2 F,2- | F,E, D,4 C,B,, | F,4 z4 | z8 | %17
 F,4 E,2 D,2- | D,2 C,2 D,2 E,2 | F,6 E,D, | C,2 C4 B,2 | C3 D B,4 | A,2 D,4 G,2 | F,2 D,2 A,4 | %24
 D,2 _E,2 C,2 D,2 | B,,2 C,3 D, E,2 | F,2 A,2 G,4 | F,4 _E,2 D,2 | C,4 F,2 _E,2- | E,2 F,2 C,4 | %30
 D,2 C,B,, A,,4 | G,,4 G,,4 | G,,4 E,4 | D,4 z4 | F,4 F,4 | E,2 F,3 E, F,2 | G,4 E,4 | D,4 D,4 | %38
 G,,4 G,,4 | D,4 D,4 | E,4 G,4 | F,4 F,4 | G,6 F,E, | F,2 E,2 C,2 F,2 | G,4 D,4 | E,2 G,2 D,4 | %46
 z2 G,4 A,2 | F,2 G,2 D,4 | G,,8 |] %49

